packages/foundations/assets/icons/functional/images/social/thumbs_up_14.svg

<svg width="14" height="14" viewBox="0 0 14 14" fill="none" xmlns="http://www.w3.org/2000/svg">
<g clip-path="url(#clip0_187_547)">
<path fill-rule="evenodd" clip-rule="evenodd" d="M9.45702 4.89932C9.56973 4.57032 9.67542 4.18952 9.73142 3.79682C9.81962 3.17942 9.67332 2.59352 9.31702 2.14762C8.97542 1.71852 8.47142 1.44692 7.88902 1.40002C6.75852 1.41262 6.39102 2.57252 6.24122 3.05132C5.88002 4.04112 5.33752 4.56472 4.88952 4.84682C4.86152 4.48562 4.56822 4.19862 4.20002 4.19862H2.10002C1.71362 4.19862 1.40002 4.51152 1.40002 4.89862V11.2C1.40002 11.5871 1.71362 11.9 2.10002 11.9H4.20002C4.50942 11.9 4.76352 11.6963 4.85592 11.4177C6.09702 11.9385 7.79242 12.6 8.40002 12.6C10.4412 12.6 12.6 10.0814 12.6 7.70002C12.6 6.93422 12.6 4.90002 10.5 4.90002L9.45702 4.89932ZM2.80002 10.4993V5.59862H3.50002V10.3635V10.4993H2.80002ZM4.90002 9.91272V6.39242C5.64622 6.11802 6.87682 5.39142 7.56702 3.50002C7.72032 3.01142 7.82532 2.85532 7.87712 2.80492C7.98772 2.82802 8.12212 2.89312 8.22222 3.01912C8.33842 3.16472 8.37972 3.35932 8.34542 3.59802C8.22502 4.43802 7.78822 5.25842 7.78332 5.26682C7.66642 5.48382 7.67272 5.74702 7.79872 5.95772C7.92472 6.16842 8.15292 6.29862 8.39932 6.29862H10.4993C10.906 6.29862 11.1993 6.29862 11.1993 7.69862C11.1993 9.43462 9.57042 11.1986 8.40422 11.1986C8.03602 11.1811 6.38192 10.5483 4.90002 9.91272Z" fill="#1A1C1F"/>
</g>
<defs>
<clipPath id="clip0_187_547">
<rect width="14" height="14" fill="white"/>
</clipPath>
</defs>
</svg>

<svg xmlns="http://www.w3.org/2000/svg" width="14" height="14" fill="none"><g clip-path="url(#a)"><path fill="#1A1C1F" fill-rule="evenodd" d="M9.457 4.9c.113-.33.218-.71.274-1.103.089-.618-.058-1.203-.414-1.65-.342-.428-.846-.7-1.428-.747-1.13.013-1.498 1.173-1.648 1.651-.361.99-.903 1.514-1.351 1.796a.695.695 0 0 0-.69-.648H2.1a.7.7 0 0 0-.7.7V11.2a.7.7 0 0 0 .7.7h2.1c.31 0 .564-.204.656-.482 1.241.52 2.936 1.182 3.544 1.182 2.041 0 4.2-2.519 4.2-4.9 0-.766 0-2.8-2.1-2.8zM2.8 10.5V5.598h.7v4.9zm2.1-.587v-3.52C5.646 6.117 6.877 5.39 7.567 3.5c.153-.489.258-.645.31-.695.11.023.245.088.345.214q.175.22.123.579c-.12.84-.557 1.66-.562 1.669A.7.7 0 0 0 8.4 6.299h2.1c.407 0 .7 0 .7 1.4 0 1.736-1.629 3.5-2.795 3.5-.368-.018-2.022-.65-3.504-1.286" clip-rule="evenodd"/></g><defs><clipPath id="a"><path fill="#fff" d="M0 0h14v14H0z"/></clipPath></defs></svg>
